X:1
T:Willie and Mary
M:6/8
L:1/8
K:D
 A| FA,D FDF| ABd E2 G|B-A F ADD| F- E2 A2 G| FA,D F2D/2-F/2| ABd E2 G|\
 B A3/2 E/2 AGC| D3- D2 G| AFA dfe| dFG A2 A/2A/2| dFF ADD| F- E2 A2 G|\
 FA,D F2D/2-F/2| ABd E2 G| BAE AGC| D3- D2||

